icon/cg/play-track-prev-r.svg

<svg viewBox="0 0 24 24" fill="none" xmlns="http://www.w3.org/2000/svg" height="1em" width="1em">
  <path fill-rule="evenodd" clip-rule="evenodd" d="M8 8C8.55228 8 9 8.44772 9 9V15C9 15.5523 8.55228 16 8 16C7.44771 16 7 15.5523 7 15V9C7 8.44772 7.44771 8 8 8ZM16 15.4641L10 12L16 8.5359V15.4641Z" fill="currentColor"/>
  <path fill-rule="evenodd" clip-rule="evenodd" d="M19 3H5C3.89543 3 3 3.89543 3 5V19C3 20.1046 3.89543 21 5 21H19C20.1046 21 21 20.1046 21 19V5C21 3.89543 20.1046 3 19 3ZM5 1C2.79086 1 1 2.79086 1 5V19C1 21.2091 2.79086 23 5 23H19C21.2091 23 23 21.2091 23 19V5C23 2.79086 21.2091 1 19 1H5Z" fill="currentColor"/>
</svg>

<svg width="24" height="24" fill="none" xmlns="http://www.w3.org/2000/svg"><path fill-rule="evenodd" clip-rule="evenodd" d="M8 8a1 1 0 0 1 1 1v6a1 1 0 1 1-2 0V9a1 1 0 0 1 1-1Zm8 7.464L10 12l6-3.464v6.928Z" fill="currentColor"/><path fill-rule="evenodd" clip-rule="evenodd" d="M19 3H5a2 2 0 0 0-2 2v14a2 2 0 0 0 2 2h14a2 2 0 0 0 2-2V5a2 2 0 0 0-2-2ZM5 1a4 4 0 0 0-4 4v14a4 4 0 0 0 4 4h14a4 4 0 0 0 4-4V5a4 4 0 0 0-4-4H5Z" fill="currentColor"/></svg>
